X:6616
T:Gullane
Z: id:dc-jig-155
M:6/8
L:1/8
K:D Major
e|fdB AFA|DED DFA|BdB AFA|ABd efg|!
fdB AFA|D2B AFA|BdB AFA|Bdc d2:|!
e|faf efe|dBA d2e|f3 ede|faa bag|!
faf efe|dBA d2e|fdB AFA|Bdc d2:|!


